X:133
T:Nous étions dix filles dans un pré
R:Chanson
O:France
B:Le livre des Chansons (Henri Davenson) n°133
Z:<anamnese@caramail.com> -- http://anamnese.fr.st
M:2/4
L:1/8
Q:1/4=115
K:G
 B B B | B A A G | G2 B B  | B A A G |
G2 A A | A D A A | A D A B | c c B A |
[M:3/4] B G B2d2 | c c B B A A | [M:2/4] HA2 B B | B A A G | G2 B B | B A A G |
[M:3/4] G2 G B d e |[M:2/4] (d2c2) {dc}|B2 z B | B>A B>c | (B3A) | E2 z2 ||
W:Nous étions dix filles dans un pré,
W:Toutes les dix à marier :
W:Y avait Dine, Y avait Chine,
W:Y avait Claudine et Martine, Ah ! ah !
W:Catherinette et Catherina ;
W:Y avait la belle Suzon,
W:La duchesse de Montbazon ;
W:Y avait Madeleine ;
W:Puis y avait la Du Maine.
W:


